X: 1
T: McDermott's
M: 4/4
L: 1/8
K: Dmaj
Q: 114
A2 A F/A/ B F3|D B-B4 c2| da f3 e/ d B2 A| FB dc B4 |
A2 A F/A/ B F3|D B-B4 c2| da f3 e/ d B2 A| FB dc B2 c2 |
d3 e/f/ ecAc |dB cA BF F2 |d2 de/f/ ec A^A|Bb Aa Bf be |
f3 e da fe|df e>d c AA2| d2 e2 fb3|fbba fedB||

